assets/img/braze_icons/magic-wand-01.svg

<svg fill="none" height="24" viewBox="0 0 24 24" width="24" xmlns="http://www.w3.org/2000/svg"><g fill="#801ed7"><path d="m14.0103 2c0-.55228.4477-1 1-1 .5522 0 1 .44772 1 1v1.5c0 .55228-.4478 1-1 1-.5523 0-1-.44772-1-1z"/><path d="m19.3031 3.29289c.3906-.39052 1.0237-.39052 1.4143 0 .3905.39053.3905 1.02369 0 1.41422l-1.0607 1.06066c-.3905.39052-1.0237.39052-1.4142 0-.3905-.39053-.3905-1.02369 0-1.41422z"/><path d="m18.2425 12.2929c-.3905.3905-.3905 1.0237 0 1.4142l1.0606 1.0607c.3906.3905 1.0237.3905 1.4143 0 .3905-.3906.3905-1.0237 0-1.4142l-1.0607-1.0607c-.3905-.3905-1.0237-.3905-1.4142 0z"/><path d="m9.24249 4.70711c-.39053-.39053-.39053-1.02369 0-1.41422.39052-.39052 1.02371-.39052 1.41421 0l1.0607 1.06066c.3905.39053.3905 1.02369 0 1.41422-.3906.39052-1.0237.39052-1.4143 0z"/><path d="m22.0103 8h-1.5c-.5523 0-1 .44772-1 1s.4477 1 1 1h1.5c.5522 0 1-.44771 1-1 0-.55228-.4478-1-1-1z"/><path clip-rule="evenodd" d="m12.8821 7.01195c.4016-.13052.8343-.13052 1.236 0 .2897.09413.5116.2537.6865.40214.1592.13516.333.30899.5114.48747l.7824.78235c.1785.17845.3523.35223.4875.51145.1484.17485.308.39674.4021.68645.1305.40169.1305.83439 0 1.23609-.0941.2897-.2537.5116-.4021.6864-.1352.1593-.309.333-.4875.5115l-9.28238 9.2823c-.17843.1785-.35223.3524-.51144.4875-.17485.1484-.39674.308-.68645.4021-.40169.1306-.83438.1306-1.23607 0-.28972-.0941-.51161-.2537-.68645-.4021-.15921-.1351-.33301-.309-.51144-.4875l-.78236-.7823c-.17847-.1784-.35232-.3523-.48748-.5115-.14843-.1748-.308-.3967-.40214-.6864-.13051-.4017-.13051-.8344 0-1.2361.09414-.2897.25371-.5116.40214-.6864.13516-.1593.30898-.333.48746-.5115l9.28241-9.28234c.1784-.17847.3522-.35232.5114-.48747.1749-.14844.3967-.30801.6865-.40214zm-.0426 5.33615c-.1142-.037-.2133-.1362-.4116-.3344l-.4417-.4417c-.1982-.1982-.2973-.2973-.3344-.4116-.0326-.1005-.0325-.2088.0002-.3092.0372-.1142.1364-.2132.3349-.4112l.9475-.94537c.198-.19757.2971-.29636.4112-.33333.1003-.03253.2084-.03246.3088.00018.114.0371.2129.136.4107.33379l.4396.43955c.1978.19778.2967.29668.3338.41078.0326.1003.0327.2084.0001.3088-.0369.1141-.1357.2131-.3333.4111l-.9453.9476c-.198.1984-.297.2976-.4112.3349-.1005.0327-.2088.0328-.3093.0001z" fill-rule="evenodd"/></g></svg>

<svg width="24" height="24" viewBox="0 0 24 24" fill="none" xmlns="http://www.w3.org/2000/svg">
<path d="M14.0103 2C14.0103 1.44772 14.458 1 15.0103 1C15.5625 1 16.0103 1.44772 16.0103 2V3.5C16.0103 4.05228 15.5625 4.5 15.0103 4.5C14.458 4.5 14.0103 4.05228 14.0103 3.5V2Z" fill="#801ED7"/>
<path d="M19.3031 3.29289C19.6937 2.90237 20.3268 2.90237 20.7174 3.29289C21.1079 3.68342 21.1079 4.31658 20.7174 4.70711L19.6567 5.76777C19.2662 6.15829 18.633 6.15829 18.2425 5.76777C17.852 5.37724 17.852 4.74408 18.2425 4.35355L19.3031 3.29289Z" fill="#801ED7"/>
<path d="M18.2425 12.2929C17.852 12.6834 17.852 13.3166 18.2425 13.7071L19.3031 14.7678C19.6937 15.1583 20.3268 15.1583 20.7174 14.7678C21.1079 14.3772 21.1079 13.7441 20.7174 13.3536L19.6567 12.2929C19.2662 11.9024 18.633 11.9024 18.2425 12.2929Z" fill="#801ED7"/>
<path d="M9.24249 4.70711C8.85196 4.31658 8.85196 3.68342 9.24249 3.29289C9.63301 2.90237 10.2662 2.90237 10.6567 3.29289L11.7174 4.35355C12.1079 4.74408 12.1079 5.37724 11.7174 5.76777C11.3268 6.15829 10.6937 6.15829 10.3031 5.76777L9.24249 4.70711Z" fill="#801ED7"/>
<path d="M22.0103 8H20.5103C19.958 8 19.5103 8.44772 19.5103 9C19.5103 9.55228 19.958 10 20.5103 10H22.0103C22.5625 10 23.0103 9.55229 23.0103 9C23.0103 8.44772 22.5625 8 22.0103 8Z" fill="#801ED7"/>
<path fill-rule="evenodd" clip-rule="evenodd" d="M12.8821 7.01195C13.2837 6.88143 13.7164 6.88143 14.1181 7.01195C14.4078 7.10608 14.6297 7.26565 14.8046 7.41409C14.9638 7.54925 15.1376 7.72308 15.316 7.90156L16.0984 8.68391C16.2769 8.86236 16.4507 9.03614 16.5859 9.19536C16.7343 9.37021 16.8939 9.5921 16.988 9.88181C17.1185 10.2835 17.1185 10.7162 16.988 11.1179C16.8939 11.4076 16.7343 11.6295 16.5859 11.8043C16.4507 11.9636 16.2769 12.1373 16.0984 12.3158L6.81602 21.5981C6.63759 21.7766 6.46379 21.9505 6.30458 22.0856C6.12973 22.234 5.90784 22.3936 5.61813 22.4877C5.21644 22.6183 4.78375 22.6183 4.38206 22.4877C4.09234 22.3936 3.87045 22.234 3.69561 22.0856C3.5364 21.9505 3.3626 21.7766 3.18417 21.5981L2.40181 20.8158C2.22334 20.6374 2.04949 20.4635 1.91433 20.3043C1.7659 20.1295 1.60633 19.9076 1.51219 19.6179C1.38168 19.2162 1.38168 18.7835 1.51219 18.3818C1.60633 18.0921 1.7659 17.8702 1.91433 17.6954C2.04949 17.5361 2.22331 17.3624 2.40179 17.1839L11.6842 7.90156C11.8626 7.72309 12.0364 7.54924 12.1956 7.41409C12.3705 7.26565 12.5923 7.10608 12.8821 7.01195ZM12.8395 12.3481C12.7253 12.3111 12.6262 12.2119 12.4279 12.0137L11.9862 11.572C11.788 11.3738 11.6889 11.2747 11.6518 11.1604C11.6192 11.0599 11.6193 10.9516 11.652 10.8512C11.6892 10.737 11.7884 10.638 11.9869 10.44L12.9344 9.49463C13.1324 9.29706 13.2315 9.19827 13.3456 9.1613C13.4459 9.12877 13.554 9.12884 13.6544 9.16148C13.7684 9.19858 13.8673 9.29748 14.0651 9.49527L14.5047 9.93482C14.7025 10.1326 14.8014 10.2315 14.8385 10.3456C14.8711 10.4459 14.8712 10.554 14.8386 10.6544C14.8017 10.7685 14.7029 10.8675 14.5053 11.0655L13.56 12.0131C13.362 12.2115 13.263 12.3107 13.1488 12.348C13.0483 12.3807 12.94 12.3808 12.8395 12.3481Z" fill="#801ED7"/>
</svg>
